X: 38
T:Lord of Caernarfon's Jig
M:C|
L:1/8
Q:200
C:Trad
S:Blodau'r Grug Collection Vol. 2
A:Wales
Z:brian_martin12345@yahoo.com
K:G
B2G2Bcd2|c2A2ABcd|B2G2d2ef|g4d4:||
gfed g3B|A2A2c2dc|B2G2b3a|g4d4:||
